X:1
T:Canon
T:Canon in D
T:J.S Bach 
C:J.S Bach
%%score 1 2
L:1/8
Q:1/4=80
M:4/4
K:C
V:1 treble nm="Oboe"
V:2 treble nm="Oboe"
V:1
!f! a^f/g/ af/g/ a/(A/B/^c/ d/e/f/g/) | ^fd/e/ f^F/G/ (A/B/A/G/ A/F/G/A/) | %2
 GB/A/ G^F/E/ (F/E/D/E/ F/G/A/B/) | GB/A/ B^c/d/ (A/B/c/d/ e/^f/g/a/) | %4
 a^f/g/ af/g/ a/(A/B/^c/ d/e/f/g/) | ^fd/e/ f(^F/G/ A/B/A/G/ A/F/G/A/) | %6
 GB/A/ G^F/E/ (F/E/D/E/ F/G/A/B/) | GB/A/ B^c/d/ (A/B/c/d/ e/^f/g/a/) | ^f4 z4 |] %9
V:2
 dAd^f AEA^c | B^FBd F^cFA | GDGB dAd^f | GDGB AEA^c | dAd^f AEA^c | B^FBd F^cFA | GDGB dAd^f | %7
 GdGB AEA^c | d4 z4 |] %9

